X:1
T:Je ne puis vivre ainsy
T:Je ne puis vivre ainsy
T:Antoine Busnois (c.1430-1492)
T:© 2009 by Paul R Marchesano. May be freely copied for nonprofit use.
T:© 2009 by Paul R Marchesano. May be freely copied for nonprofit use.
T:© 2009 by Paul R Marchesano. May be freely copied for nonprofit use.
C:Antoine Busnois
C:(c.1430-1492)
Z:© 2009 by Paul R Marchesano. May be freely copied for nonprofit use.
%%score [ 1 2 3 ]
L:1/8
Q:1/4=96
M:3/4
K:D
V:1 treble nm="Soprano I" snm="S-I"
V:2 treble nm="Soprano II" snm="S-II"
V:3 treble-8 nm="Tenor" snm="T"
V:1
 D2 D2 FG | A2 B d2 c/B/ | c2 z2 f2 | ee- e/d/c/B/ A>B | cd- d/c/A B3/2A/4G/4 | F4 x2 | d2 d2 c2 | %7
w: 1.5.Je ne puis _|vi- vreain- * * *|sy tou-|* jours _ _ _ _ _ _|_ _ _ _ _ _ _ _||Au mains que|
w: 4.Quant a moi, _|je me _ _ _|meurs bon-|* cours, _ _ _ _ _ _|_ _ _ _ _ _ _ _||Ve- lant les|
 B3 A2 F | G A2 G/F/ E2 | D>E FG- G/A/B | A>G F>D E2 | D6 | z6 | F2 G2 FA- | AG/F/ E>D D z | %15
w: j'aye en _|mes _ _ _ do-|jours _ _ _ _ _ _|_ _ _ _ _|||Quel- que con- *|* * * * * fort|
w: nuits, fai- *|sant _ _ _ cent|tours _ _ _ _ _ _|_ _ _ _ _|||En cri- ant _|_ _ _ _ _ fort:|
 A2 G B2 A/G/ | F>E E z B2 | Ac- c/B/A G>F | A4 z2 | z2 A2 GA- | Ac BA e2 | d c2 A Bc | %22
w: U- ne seul- * *|eheu- * re ou|mains _ _ _ _ ou _|fort.|Et tou _|_ _ les _ jours|Le- * * au- *|
w: "Ven- gence en _ _|à _ Dieu, car|à _ _ _ _ grant _|tort|Je noye en|_ _ _ _ plours|Lors qu'au _ be- *|
 F2 G A2 D- | D/E/F- F/E/ D2 C | D>E FG AB | cd AG/F/ E2 | D6 ||[M:2/2] A4 A2 A2 | A3 G/F/ E>D D2 | %29
w: ment ser- * vi-|* * ray _ _ a- *|mours _ _ _ Jus- *|qu'à _ la _ _ _|mort.|2.No- ble fem-|me _ _ de _ nom|
w: soin _ me fault|_ _ _ _ _ se- *|cours _ _ _ Et _|Pi- * tié _ _ _|dort.|3.Des ieux plou-|rant _ _ a _ chaul-|
 z2 d2- dc/B/c/B/A/G/ | F2 f2- fe d2 | dccB d2 z2 | A2 GF- FE/D<CB,/ | DFGA- AG/F/ E2 | %34
w: et _ _ _ _ _ _ _|d'ar- * * * *|* * * * mes,|Es- cript _ _ _ _ vous _|ay _ _ _ _ _ _ _|
w: des _ _ _ _ _ _ _|lar- * * * *|* * * * mes|Af- fin _ _ _ _ qu'ay- *|es _ _ _ _ _ _ _|
 D2 z2 =F2 G2 | A2 G=F- FD E2 | D2 z A- AB c2 | d>cAB- B/A/GAG/F/ | E8 |] %39
w: _ ce dit-|tier _ _ _ _ _|cy ce _ _ dit-|tier _ _ _ _ _ _ _ _ _|cy.|
w: _ de moy|mer- * * * * *|chy, de _ _ moy|mer- * * * * * * * * *|chy.|
V:2
 z6 | z6 | z6 | z6 | z6 | z2 z2 D2 | D2 FG A2 | B d2 c/B/ c>d | ef- f/e/ d2 c | d2 z2 d2 | %10
w: |||||Au|mains _ _ que|j'aye _ _ _ _ _|_ _ _ _ _ _|* en|
w: |||||Ve-|lant _ _ les|nuits, _ _ _ _ _|_ _ _ _ _ _|* fai-|
 c2 AB c/B/A/G/ | F4 z2 | F2 G2 FA- | AG/F/ E>D D z | A2 G B2 A/G/ | F>E E z B2 | A c2 B/A/ G>F | %17
w: mes _ _ do- * * *|jours|Quel- que con- *|* * * * * fort|U- ne seul- * *|eheu- * re ou|mains _ _ _ ou _|
w: sant _ _ cent _ _ _|tours|En cri- ant _|_ _ _ _ _ fort:|"Ven- gence en _ _|à _ Dieu, car|à _ _ _ grant _|
 Ae- e/d/c B2 | A2 z2 A2 | G A2 c BA | e2 d c2 A | Bc F2 GA- | AD EF D2 | C D2 F E2 | z D2 E FG | %25
w: fort. _ _ _ _ _|_ Et|tou _ _ les _|jours Le- * *|au- * ment ser- *|* * vi- * ray|a- * * *|mours _ Jus- *|
w: tort _ _ _ _ _|_ Je|noye en _ _ _|plours Lors qu'au _|be- * soin _ _|_ _ me _ fault|se- * * *|cours _ Et _|
 AB c d2 c | d6 ||[M:2/2] F4 F2 F2 | A3 G/F/ C2 D2 | F4 E4 | D2 C2 D4 | E4 D4- | D4 z4 | %33
w: qu'à _ _ la _|mort.|2.No- ble fem-|me _ _ de _|_ _|nom _ _|||
w: Pi- * * tié _|dort.|3.Des ieux plou-|rant _ _ a _|_ _|chaul- * *|* des|_|
 A2 GF- FE/D<CB,/ | DFGA- AG/=F/ E2 | D2 z2 =F2 G2 | A2 G=F- FD E2 | D>EFG- G/F/EFE/D/ | C8 |] %39
w: Es- cript _ _ _ _ vous _|ay _ _ _ _ _ _ _|_ ce dit-|tier _ _ _ _ _|_ _ _ _ _ _ _ _ _ _|cy.|
w: Af- fin _ _ _ _ qu'ay- *|es _ _ _ _ _ _ _|_ de moy|mer- * * * * *||chy.|
V:3
 z6 | D2 D2 FG | A2 B d2 c/B/ | c2 z2 f2 | ed f2 e2 | d>B de f2 | B2 z2 z2 | z6 | z2 z2 A2 | %9
w: |1.5.Je ne puis _|vi- vreain- * * *|sy tou-|||jours||Au|
w: |4.Quant a moi, _|je me _ _ _|meurs bon-|||cours,||Ve-|
 B>A FE G2 | A2 D2 C2 | D6 | D2 E2 DF- | FE/D/ C>B, D2 | z D E G2 F/E/ | D>C E2 z E | %16
w: mains _ _ que j'aye|en mes do-|jours|Quel- que con- *|* * * * * fort|U- ne seul- * *|eheu- * re ou|
w: lant _ _ les nuits,|fai- sant cent|tours|En cri- ant _|_ _ _ _ _ fort:|"Ven- gence en _ _|à _ Dieu, car|
 F A2 G/F/ E>D | FA- A/B/c/d/ e>d | c f2 e/d/ cA | Bc F2 z2 | A2 Bc A2 | z A- A/G/F EC | %22
w: mains _ _ _ ou _|fort. _ _ _ _ _ _ _|_ _ _ _ _ _||Et tou les jours|Le- * * au- ment _|
w: à _ _ _ grant _|tort _ _ _ _ _ _ _|_ _ _ _ _ _||Je noye en plours|Lors _ _ qu'au be- *|
 D/FG/ ED- D/E/F/G/ | ED- D/C/D A2 | D2 z2 dc/B/ | AG FD A2 | D6 ||[M:2/2] D4 D2 D2 | F3 G A2 B2- | %29
w: ser- * * vi- ray _ _ _ _|a- * * * * *|mours Jus- * *|qu'à _ _ _ la|mort.|2.No- ble fem-|me _ de nom|
w: soin _ _ me fault _ _ _ _|se- * * * * *|cours Et _ _|Pi- * * * tié|dort.|3.Des ieux plou-|rant _ a chaul-|
 BA F2 G2 A2 | B3 A B2 d2 | A4 z2 D2- | DE/F/GA- AG/F<ED/ | D2 ED FG A2 | z DE=F D2 =C2 | %35
w: _ _ et _ _|d'ar- * * *|mes, Es-|* * * cript _ _ _ _ vous _|ay _ _ _ _ _|ce _ _ dit- *|
w: * * des _ _|lar- * * *|mes Af-|* * * fin _ _ _ _ qu'ay- *|es _ _ _ _ _|de _ _ moy _|
 =F2 ED D/E/F =C2 | z =FEF D2 A2 | B>AFE G>FD/E/F/G/ | A8 |] %39
w: tier _ _ _ _ _ cy|ce _ _ dit- *|tier _ _ _ _ _ _ _ _ _|cy.|
w: mer- * * * * * chy,|de _ _ moy _|mer- * * * * * * * * *|chy.|

